X: 260
U:~=!turn!
M:C
L:1/8
K:A minor
!p!(cd)eA (cd)eA | (d/c/B/A/) (Gd) BGdB | (cdeA) (cdea) | ge^fd e2 A :|
!ff!B | cde^f gage | gage (d/c/B/A/) (GB) | cde^f gage | aba^g a2 (AB) |
cde^f gage | gage (d/c/B/A/) (GB) | cde^f gagf | ea^gb a2 A |]


